X: 10649
T: Down In The Moss Pit
R: jig
M: 6/8
K: Amixolydian
|:AAA Ace|fdd dcB|ccc cBA|B2 d2 f2|
cAA Ace|fdd dcB|cde dcB|A2 c2 Bd:|
|:fff fed|e2 c2 A2|Aff fef|e2 c2 ce|
[1 fff fed|e2 c2 A2|BBB Bcd|e2 c2 ce:|
[2 cAA Ace|fdd dcB|cde dcB|A2 c2 Bd||
|:c2 A2 ce|fdd dcB|c2 A2 ce|B2 G2 Bd|
c2 A2 ce|fdd dcB|cde dcB|A2 c2 Bd:|
|:f2 d2 df|ecc cdc|f2 d2 df|e2 c2 e2|
[1 f2 d2 df|ecc cdc|cde dcB|A2 c2 Bd:|
[2 cAA Ace|fdd dcB|cde dcB|A6||

